icons/warning-large.svg

<svg xmlns="http://www.w3.org/2000/svg" width="24" height="24" viewBox="0 0 24 24">
  <path d="M12,18 C13.1045695,18 14,18.8954305 14,20 C14,21.1045695 13.1045695,22 12,22 C10.8954305,22 10,21.1045695 10,20 C10,18.8954305 10.8954305,18 12,18 Z M12.9260237,2 C13.4783084,2 13.9260237,2.44771525 13.9260237,3 C13.9260237,3.02377167 13.925176,3.04753579 13.9234824,3.07124705 L13.0663395,15.071247 C13.0289605,15.5945525 12.5935195,16 12.0688808,16 L11.9311192,16 C11.4064805,16 10.9710395,15.5945525 10.9336605,15.071247 L10.0765176,3.07124705 C10.037169,2.52036582 10.4518481,2.04188996 11.0027293,2.0025413 L11.0383302,2.00063553 L11.0383302,2.00063553 L12.9260237,2 Z"/>
</svg>

<svg xmlns="http://www.w3.org/2000/svg" viewBox="0 0 24 24">
  <path d="M12 18a2 2 0 1 1 0 4 2 2 0 0 1 0-4zm.93-16a1 1 0 0 1 1 1.07l-.86 12a1 1 0 0 1-1 .93h-.14a1 1 0 0 1-1-.93l-.85-12A1 1 0 0 1 11 2h1.93z"/>
</svg>
